!! 00000] TT[00
!!!OTL: Longchuan diao
!!!ARE: Asia, China,Hubei
!! Ethnic Group: Han
!! Zhongguo Minge Jing Xuan
!!!SCT: C1173
!!!YEM: Copyright 1995, estate of Helmut Schaffrath.
**kern
*ICvox
*Ivox
*M2/4
*k[f#c#]
*D:
{8ff#
16dd
16dd
8dd
8ff#
=1
8dd
4ee
16dd
16ee
=2
8.ff#
16ee
16dd
16ee
16dd
16b
=3
2b}
=4
{8.ee
16dd
8b
8dd
=5
8ee
4dd
8b
=6
2a}
=7
{16dd
16dd
16a
16dd
4b
=8
16f#
16f#
16f#
16dd
4b}
=9
{16dd
16ee
8ff#
8ee
8dd
=10
16dd
16b
16ee
16dd
8b
16a
16b
=11
16dd
16b
16ee
16dd
4b}
=12
{16b
16a
16f#
16b
16f#
8.a
=13
16b
16a
16f#
16dd
8b
8b}
=14
{16b
16b
16f#
16dd
8b
16a
16f#
=15
16ff#
8ff#
16ff#
8ff#
16dd
16ee
=16
8ff#
4ee
16dd
16b}
=17
{16b
16ee
16dd
16dd
16dd
8ee
16dd
=18
4.b}
{16a
16b
=19
8ee
8dd
8b
16a
16b
=20
8ee
8dd
4b}
=21
{16ee
8dd
16b
16dd
16b
16dd
16ee
=22
8b
4dd
8b
=23
2a}
==
!!!AGN: Duichang (Wechselgesang, Antiphonie)
!! Verzierungen und Glissandi
!!!ONB: ESAC (Essen Associative Code) Database: CHINA_067
!!!AMT: simple duple
!!!AIN: vox
!!!EED: Helmut Schaffrath
!!!EEV: 1.0
*-
